packages/ui-solid/icons/lock_28.svg

<svg width="28" height="28" viewBox="0 0 28 28" fill="none" xmlns="http://www.w3.org/2000/svg">
<path fill-rule="evenodd" clip-rule="evenodd" d="M13.6998 3.79722C11.3331 3.79722 9.41449 5.71581 9.41449 8.0825V9.98474H17.9851V8.0825C17.9851 5.71581 16.0665 3.79722 13.6998 3.79722ZM19.7851 9.99282V8.0825C19.7851 4.7217 17.0606 1.99722 13.6998 1.99722C10.339 1.99722 7.61449 4.7217 7.61449 8.0825V10.035C5.84627 10.3208 4.48063 11.7879 4.34968 13.6043C4.33953 13.745 4.33955 13.9033 4.33958 14.1241L4.33958 19.9675C4.33957 20.7755 4.33956 21.4364 4.38344 21.9735C4.42886 22.5294 4.52574 23.0314 4.76465 23.5003C5.13856 24.2342 5.73518 24.8308 6.46902 25.2047C6.9379 25.4436 7.43998 25.5405 7.9959 25.5859C8.53297 25.6298 9.19382 25.6298 10.0019 25.6298H17.9435C18.7515 25.6298 19.4124 25.6298 19.9495 25.5859C20.5054 25.5405 21.0075 25.4436 21.4763 25.2047C22.2102 24.8308 22.8068 24.2342 23.1807 23.5003C23.4196 23.0314 23.5165 22.5294 23.5619 21.9735C23.6058 21.4364 23.6058 20.7755 23.6058 19.9675V14.7055C23.6058 14.6695 23.6058 14.6341 23.6058 14.5992C23.6061 13.9396 23.6062 13.4662 23.5161 13.0532C23.191 11.5633 22.0272 10.3996 20.5373 10.0744C20.3115 10.0251 20.0676 10.0029 19.7851 9.99282ZM20.1535 11.833C19.9562 11.79 19.6952 11.7847 18.8851 11.7847H8.51449C8.24353 11.7847 8.15583 11.7853 8.08857 11.7902C7.04784 11.8652 6.22005 12.693 6.14502 13.7337C6.14017 13.801 6.13958 13.8887 6.13958 14.1597V19.9298C6.13958 20.7847 6.14028 21.3718 6.17746 21.8269C6.21379 22.2715 6.2804 22.5103 6.36846 22.6832C6.5698 23.0783 6.89106 23.3996 7.2862 23.6009C7.45905 23.689 7.69787 23.7556 8.14247 23.7919C8.59758 23.8291 9.18465 23.8298 10.0396 23.8298H17.9058C18.7607 23.8298 19.3478 23.8291 19.8029 23.7919C20.2475 23.7556 20.4863 23.689 20.6592 23.6009C21.0543 23.3996 21.3756 23.0783 21.5769 22.6832C21.665 22.5103 21.7316 22.2715 21.7679 21.8269C21.8051 21.3718 21.8058 20.7847 21.8058 19.9298V14.7055C21.8058 13.8953 21.8006 13.6344 21.7575 13.437C21.5824 12.6347 20.9558 12.0081 20.1535 11.833Z" fill="#007AFF"/>
<path d="M15.7199 17.8081C15.7199 18.7605 14.9377 19.5325 13.9728 19.5325C13.0079 19.5325 12.2257 18.7605 12.2257 17.8081C12.2257 16.8558 13.0079 16.0837 13.9728 16.0837C14.9377 16.0837 15.7199 16.8558 15.7199 17.8081Z" fill="#007AFF"/>
</svg>

<svg xmlns="http://www.w3.org/2000/svg" width="28" height="28" fill="none"><path fill="currentColor" fill-rule="evenodd" d="M13.7 3.797a4.285 4.285 0 0 0-4.286 4.286v1.902h8.571V8.083A4.285 4.285 0 0 0 13.7 3.797m6.085 6.196v-1.91a6.085 6.085 0 0 0-12.17 0v1.952a3.9 3.9 0 0 0-3.265 3.57c-.01.14-.01.298-.01.52v5.843c0 .808 0 1.468.043 2.006.046.555.143 1.057.382 1.526a3.9 3.9 0 0 0 1.704 1.705c.469.239.971.336 1.527.38.537.045 1.198.045 2.006.045h7.942c.808 0 1.468 0 2.006-.044.555-.045 1.058-.142 1.526-.381a3.9 3.9 0 0 0 1.705-1.705c.239-.469.335-.97.38-1.526.045-.538.045-1.198.045-2.006v-5.369c0-.66 0-1.133-.09-1.546a3.9 3.9 0 0 0-2.979-2.979 4 4 0 0 0-.752-.081m.369 1.84c-.198-.043-.459-.048-1.269-.048H8.515c-.271 0-.36 0-.426.005a2.1 2.1 0 0 0-1.944 1.944 7 7 0 0 0-.005.426v5.77c0 .855 0 1.442.037 1.897.037.444.103.683.191.856a2.1 2.1 0 0 0 .918.918c.173.088.412.155.856.19.456.038 1.043.039 1.898.039h7.866c.855 0 1.442 0 1.897-.038.444-.036.683-.103.856-.191a2.1 2.1 0 0 0 .918-.918c.088-.173.155-.412.19-.856.038-.455.039-1.042.039-1.897v-5.224c0-.81-.005-1.072-.049-1.269a2.1 2.1 0 0 0-1.604-1.604" clip-rule="evenodd"/><path fill="currentColor" d="M15.72 17.808c0 .953-.782 1.724-1.747 1.724a1.736 1.736 0 0 1-1.747-1.724c0-.952.782-1.724 1.747-1.724s1.747.772 1.747 1.724"/></svg>
